X: 29
M:2/4
L:1/8
K:G
|:D/G/B/G/ A/G/B/G/|D/G/B/G/ A/G/E/G/|D/G/B/G/ A/G/B/G/|
c/B/A/G/ FD/D/|D/G/G/A/ B/G/G||
K:D
d>ddd|A/d/d/e/ f/(d/d)|d>ddd|A/B/A/G/ (F/E/)D|d>ddd|
K:G
|:d/g/b/g/ a/g/b/g/|d/g/b/g/ a/g/e/g/|d/g/b/g/ a/g/b/g/|d/e/d/c/ B/A/G:|



